X: 1
T: John Stenson's
M: 4/4
L: 1/8
R: reel
K: Dmaj
|:dAfA aAfA|abaf edBc|dAfA aAfA|1 abaf ~e3f:|2 abaf e2de||
|:fBBA Bcde|fBBA d3e|fBBA Bcde|1 faaf ~e2de:|2 faaf effe||
